X:1
T:Title
L:1/8
Q:1/4=100
M:4/4
K:Ab
V:1 treble nm="Grand Piano"
V:1
 A2 AB c2 BA | B2 GA BB/A/- AG | AAFG AAGF | G8 | B2 Bc d2 cB | ccAB c3 B/A/ | G2 FG A2 GA | G8 | %8
 A2 AB (3c2 B2 A2 | B2 GA (3B2 A2 G2 | A2 FG A2 GF | G8 | B2 Bc d2 cB | ccAB (3c2 B2 A2 | %14
 G2 FG AAGG |[M:3/4] c6 |[M:1/4] z F |[M:4/4] F2 G2 A2 GF | G6- GG | G2 A2 B2 AG | c8 | %21
 B2 cd G2 AB | B>B Bc F3 G | A2 BA G2 F=E | F8 |] %25

